Pods/ProtonCore-UIFoundations/libraries/UIFoundations/Sources/Assets.xcassets/Images/IconSet/ic-envelope-open-text.imageset/ic-envelope-open-text.svg

<svg width="24" height="24" viewBox="0 0 24 24" fill="none" xmlns="http://www.w3.org/2000/svg">
<path fill-rule="evenodd" clip-rule="evenodd" d="M11.2378 1.60235C11.7375 1.47109 12.2626 1.47109 12.7623 1.60235C13.3314 1.75187 13.8308 2.12599 14.4946 2.62333L14.6056 2.70644L15.9995 3.7491H18C18.8285 3.7491 19.5 4.42067 19.5 5.2491V6.3741L20.28 6.9591L20.3627 7.02109C20.9871 7.48903 21.419 7.81271 21.7374 8.23231C22.0185 8.60273 22.2282 9.02219 22.3559 9.46929C22.5005 9.97577 22.5003 10.5155 22.5001 11.2958L22.5 11.3991V18.1491V18.1801C22.5001 18.7838 22.5001 19.2821 22.4669 19.688C22.4325 20.1095 22.3585 20.4971 22.1731 20.8611C21.8854 21.4256 21.4265 21.8845 20.862 22.1721C20.498 22.3576 20.1105 22.4315 19.6889 22.466C19.283 22.4991 18.7848 22.4991 18.181 22.4991H18.15H5.85005H5.81905C5.21533 22.4991 4.71707 22.4991 4.31118 22.466C3.8896 22.4315 3.50208 22.3576 3.13807 22.1721C2.57359 21.8845 2.11465 21.4256 1.82703 20.8611C1.64156 20.4971 1.56764 20.1095 1.53319 19.688C1.50003 19.2821 1.50004 18.7838 1.50005 18.1801L1.50005 18.1491V11.3991L1.50002 11.2958C1.49976 10.5155 1.49957 9.97577 1.64422 9.46929C1.77191 9.02219 1.98164 8.60273 2.26271 8.23231C2.5811 7.81271 3.01299 7.48903 3.63735 7.02109L3.72005 6.9591L4.50005 6.3741V5.2491C4.50005 4.42067 5.17162 3.7491 6.00005 3.7491H8.00058L9.39451 2.70644L9.50551 2.62332C10.1693 2.12599 10.6687 1.75187 11.2378 1.60235ZM12.3812 3.05313C12.6071 3.11247 12.8347 3.25891 13.4946 3.7491H10.5055C11.1654 3.25891 11.393 3.11247 11.6189 3.05313C11.8688 2.9875 12.1313 2.9875 12.3812 3.05313ZM19.5 11.4865V8.24919C20.1465 8.73517 20.3768 8.92075 20.5424 9.13903C20.7111 9.36128 20.8369 9.61295 20.9135 9.88121C20.9624 10.0524 20.9839 10.2372 20.9932 10.5676L19.5 11.4865ZM18 12.4096V5.2491H6.00005V12.4096L11.607 15.86C11.848 16.0083 12.1521 16.0083 12.3931 15.86L18 12.4096ZM4.50005 11.4865V8.24919C3.85361 8.73517 3.62327 8.92075 3.45764 9.13903C3.289 9.36128 3.16316 9.61295 3.08655 9.88121C3.03765 10.0524 3.01619 10.2372 3.00691 10.5676L4.50005 11.4865ZM3.00005 12.3247V18.1491C3.00005 18.7915 3.00063 19.2283 3.02821 19.5658C3.05507 19.8946 3.10377 20.0628 3.16354 20.1801C3.30735 20.4623 3.53682 20.6918 3.81906 20.8356C3.93636 20.8954 4.10451 20.9441 4.43332 20.9709C4.77089 20.9985 5.20761 20.9991 5.85005 20.9991H18.15C18.7925 20.9991 19.2292 20.9985 19.5668 20.9709C19.8956 20.9441 20.0637 20.8954 20.181 20.8356C20.4633 20.6918 20.6927 20.4623 20.8366 20.1801C20.8963 20.0628 20.945 19.8946 20.9719 19.5658C20.9995 19.2283 21 18.7915 21 18.1491V12.3247L13.1793 17.1375C12.4561 17.5825 11.544 17.5825 10.8208 17.1375L3.00005 12.3247ZM7.50005 8.2491C7.50005 7.83489 7.83583 7.4991 8.25005 7.4991H15.75C16.1643 7.4991 16.5 7.83489 16.5 8.2491C16.5 8.66331 16.1643 8.9991 15.75 8.9991H8.25005C7.83583 8.9991 7.50005 8.66331 7.50005 8.2491ZM8.25005 10.4991C7.83583 10.4991 7.50005 10.8349 7.50005 11.2491C7.50005 11.6633 7.83583 11.9991 8.25005 11.9991H15.75C16.1643 11.9991 16.5 11.6633 16.5 11.2491C16.5 10.8349 16.1643 10.4991 15.75 10.4991H8.25005Z" fill="#0C0C14"/>
</svg>

<svg xmlns="http://www.w3.org/2000/svg" width="24" height="24" viewBox="0 0 24 24">
  <g class="ic-envelope-open-text">
    <path fill-rule="evenodd" d="M11.238 1.602a3 3 0 0 1 1.524 0c.57.15 1.069.524 1.733 1.021l.11.083L16 3.75h2a1.5 1.5 0 0 1 1.5 1.5v1.125l.78.585.083.062c.624.468 1.056.792 1.374 1.211.282.37.491.79.619 1.237.144.507.144 1.046.144 1.827v6.883c0 .604 0 1.102-.033 1.508-.034.422-.108.81-.294 1.173a3 3 0 0 1-1.311 1.311c-.364.186-.752.26-1.173.294-.406.033-.904.033-1.508.033H5.82c-.605 0-1.103 0-1.509-.033-.421-.035-.809-.108-1.173-.294a3 3 0 0 1-1.311-1.31c-.185-.365-.26-.752-.294-1.174-.033-.406-.033-.904-.033-1.508v-6.884c0-.78 0-1.32.144-1.827a3.75 3.75 0 0 1 .619-1.237c.318-.42.75-.743 1.374-1.21l.083-.063.78-.585V5.25A1.5 1.5 0 0 1 6 3.75h2l1.395-1.043.11-.083c.664-.497 1.164-.871 1.733-1.02Zm1.143 1.451c.226.06.454.206 1.114.696h-2.99c.66-.49.888-.637 1.114-.696a1.5 1.5 0 0 1 .762 0Zm7.119 8.434V8.248c.646.486.877.672 1.043.89.168.222.294.474.37.742.05.171.07.356.08.687l-1.493.918Zm-1.5.923V5.25H6v7.16l5.607 3.45a.75.75 0 0 0 .786 0L18 12.41Zm-13.5-.924V8.25c-.646.486-.877.672-1.042.89a2.25 2.25 0 0 0-.371.742c-.05.171-.07.356-.08.687l1.493.918Zm-1.5.839v5.824c0 .642 0 1.08.028 1.417.027.329.076.497.136.614a1.5 1.5 0 0 0 .655.656c.117.06.286.108.614.135.338.027.775.028 1.417.028h12.3c.643 0 1.08 0 1.417-.028.329-.027.497-.076.614-.135a1.5 1.5 0 0 0 .656-.656c.06-.117.108-.285.135-.614.027-.338.028-.774.028-1.417v-5.824l-7.82 4.813a2.25 2.25 0 0 1-2.36 0L3 12.325Zm4.5-4.076a.75.75 0 0 1 .75-.75h7.5a.75.75 0 1 1 0 1.5h-7.5a.75.75 0 0 1-.75-.75Zm.75 2.25a.75.75 0 0 0 0 1.5h7.5a.75.75 0 1 0 0-1.5h-7.5Z" class="Icon"/>
  </g>
</svg>
